X: 1
T:Kas a barh
C:Gwenva
M:4/4
L:1/8
K:C
cB|c3B c2d2|e4 e2de|f2e2 d2c2|d6:|\
|:e2|e2g2 c4|cdcB A2d2|d2d2 B2G2|c6:|
